img/menu/m-icons-cat3.svg

<svg width="24" height="24" viewBox="0 0 24 24" fill="none" xmlns="http://www.w3.org/2000/svg">
<path d="M6.94634 14.9667H1.26942C0.96333 14.9667 0.715576 15.1961 0.715576 15.4789L0.715576 18.3386C0.715576 18.6214 0.96333 18.8508 1.26942 18.8508H6.94634C7.25244 18.8508 7.50019 18.6214 7.50019 18.3386V15.4789C7.50019 15.1958 7.25207 14.9667 6.94634 14.9667Z" fill="#034899"/>
<path d="M14.8387 14.9667H9.16176C8.85566 14.9667 8.60791 15.1961 8.60791 15.4789V18.3386C8.60791 18.6214 8.85566 18.8508 9.16176 18.8508H14.8387C15.1444 18.8508 15.3925 18.6214 15.3925 18.3386V15.4789C15.3925 15.1958 15.1444 14.9667 14.8387 14.9667Z" fill="#034899"/>
<path d="M22.731 14.9667H17.0541C16.7484 14.9667 16.5002 15.1961 16.5002 15.4789V18.3386C16.5002 18.6214 16.7484 18.8508 17.0541 18.8508H22.731C23.0367 18.8508 23.2849 18.6214 23.2849 18.3386V15.4789C23.2849 15.1958 23.0367 14.9667 22.731 14.9667Z" fill="#034899"/>
<path d="M5.21547 13.9423H10.8924C11.1985 13.9423 11.4462 13.7128 11.4462 13.4301V10.5703C11.4462 10.2872 11.1985 10.0581 10.8924 10.0581H5.21547C4.90937 10.0581 4.66162 10.2872 4.66162 10.5703V13.4301C4.66162 13.7128 4.90937 13.9423 5.21547 13.9423Z" fill="#034899"/>
<path d="M12.554 10.5703V13.4301C12.554 13.7128 12.8021 13.9423 13.1078 13.9423H18.7847C19.0904 13.9423 19.3386 13.7128 19.3386 13.4301V10.5703C19.3386 10.2872 19.0904 10.0581 18.7847 10.0581H13.1078C12.8021 10.0581 12.554 10.2872 12.554 10.5703Z" fill="#034899"/>
<path d="M9.16176 9.03368H14.8387C15.1444 9.03368 15.3925 8.80456 15.3925 8.52149V5.66173C15.3925 5.37866 15.1444 5.14954 14.8387 5.14954H9.16176C8.85566 5.14954 8.60791 5.37866 8.60791 5.66173V8.52149C8.60791 8.80422 8.85566 9.03368 9.16176 9.03368Z" fill="#034899"/>
</svg>

<svg width="24" height="24" fill="none" xmlns="http://www.w3.org/2000/svg"><path d="M6.946 14.967H1.27c-.306 0-.553.23-.553.512v2.86c0 .282.247.512.553.512h5.677c.306 0 .554-.23.554-.512v-2.86c0-.283-.248-.512-.554-.512zm7.893 0H9.162c-.306 0-.554.23-.554.512v2.86c0 .282.248.512.554.512h5.677c.305 0 .553-.23.553-.512v-2.86c0-.283-.248-.512-.553-.512zm7.892 0h-5.677c-.306 0-.554.23-.554.512v2.86c0 .282.248.512.554.512h5.677c.306 0 .554-.23.554-.512v-2.86c0-.283-.248-.512-.554-.512zM5.215 13.942h5.677c.306 0 .554-.23.554-.512v-2.86c0-.283-.248-.512-.554-.512H5.215c-.306 0-.553.23-.553.512v2.86c0 .283.247.512.553.512zm7.339-3.372v2.86c0 .283.248.512.554.512h5.677c.305 0 .554-.23.554-.512v-2.86c0-.283-.249-.512-.554-.512h-5.677c-.306 0-.554.23-.554.512zM9.162 9.034h5.677c.305 0 .553-.23.553-.513v-2.86c0-.282-.248-.511-.553-.511H9.162c-.306 0-.554.229-.554.512v2.86c0 .282.248.512.554.512z" fill="#034899"/></svg>
